archdroid-icon-theme/Archdroid-Amber/emblems/scalable/emblem-development-mobile-symbolic.svg

<svg fill="#bdbdbd" viewBox="0 0 48 48" xmlns="http://www.w3.org/2000/svg"><path d="m14 10.17h20v4h4v-8c0-2.21-1.79-3.98-4-3.98l-20-.02c-2.21 0-4 1.79-4 4v8h4zm16.83 23.17 9.17-9.17-9.17-9.17-2.83 2.83 6.34 6.34-6.34 6.35zm-10.83-2.82-6.34-6.34 6.34-6.35-2.83-2.83-9.17 9.17 9.17 9.17zm14 7.65h-20v-4h-4v8c0 2.21 1.79 4 4 4h20c2.21 0 4-1.79 4-4v-8h-4z" fill="#bdbdbd"/></svg>

<svg fill="#bdbdbd" viewBox="0 0 48 48" xmlns="http://www.w3.org/2000/svg"><path d="M14 10.17h20v4h4v-8c0-2.21-1.79-3.98-4-3.98l-20-.02c-2.21 0-4 1.79-4 4v8h4v-4zm16.83 23.17L40 24.17 30.83 15 28 17.83l6.34 6.34L28 30.52l2.83 2.82zM20 30.52l-6.34-6.34L20 17.83 17.17 15 8 24.17l9.17 9.17L20 30.52zm14 7.65H14v-4h-4v8c0 2.21 1.79 4 4 4h20c2.21 0 4-1.79 4-4v-8h-4v4z"/></svg>
